life2/build/assets/img/eay.svg

<svg width="24" height="15" viewBox="0 0 24 15" fill="none" xmlns="http://www.w3.org/2000/svg">
<path d="M12 0C7.41454 0 3.25621 2.63041 0.187788 6.90288C-0.0625959 7.25292 -0.0625959 7.74194 0.187788 8.09197C3.25621 12.3696 7.41454 15 12 15C16.5855 15 20.7438 12.3696 23.8122 8.09712C24.0626 7.74708 24.0626 7.25807 23.8122 6.90803C20.7438 2.63041 16.5855 0 12 0ZM12.3289 12.7814C9.28506 12.9822 6.7714 10.3518 6.96287 7.15511C7.11998 4.51956 9.15741 2.38332 11.6711 2.2186C14.7149 2.01784 17.2286 4.64825 17.0371 7.84489C16.8751 10.4753 14.8377 12.6115 12.3289 12.7814ZM12.1767 10.3415C10.537 10.4496 9.18196 9.03397 9.28997 7.31469C9.37343 5.89396 10.4732 4.74605 11.8282 4.6534C13.4679 4.5453 14.823 5.96088 14.7149 7.68017C14.6266 9.10604 13.5268 10.2539 12.1767 10.3415Z" fill="url(#paint0_linear)"/>
<defs>
<linearGradient id="paint0_linear" x1="12" y1="0" x2="12" y2="15" gradientUnits="userSpaceOnUse">
<stop stop-color="#4A75F8"/>
<stop offset="1" stop-color="#94AFFF"/>
</linearGradient>
</defs>
</svg>

<svg width="24" height="15" viewBox="0 0 24 15" fill="none" xmlns="http://www.w3.org/2000/svg"><path d="M12 0C7.415 0 3.256 2.63.188 6.903c-.25.35-.25.839 0 1.189C3.256 12.37 7.415 15 12 15c4.585 0 8.744-2.63 11.812-6.903.25-.35.25-.839 0-1.189C20.744 2.63 16.585 0 12 0zm.329 12.781c-3.044.201-5.558-2.43-5.366-5.626C7.12 4.52 9.157 2.383 11.67 2.22c3.044-.201 5.558 2.43 5.366 5.626-.162 2.63-2.2 4.766-4.708 4.936zm-.152-2.44c-1.64.109-2.995-1.307-2.887-3.026.083-1.421 1.183-2.569 2.538-2.662 1.64-.108 2.995 1.308 2.887 3.027-.088 1.426-1.188 2.574-2.538 2.662z" fill="url(#a)"/><defs><linearGradient id="a" x1="12" x2="12" y2="15" gradientUnits="userSpaceOnUse"><stop stop-color="#4A75F8"/><stop offset="1" stop-color="#94AFFF"/></linearGradient></defs></svg>
